X:15
T:The Larmer Tree Parrot
M:4/4
L:1/8
R:Reel
C:Gris Sanderson
Q:450
N:If you've ever been to the Larmer Tree festival you may 
N:understand this title. In the performers' camping area was a 
N:large oak tree that was roosted in nightly by some red, yellow and 
N:blue parrots. This was all fine and exotic until the dawn 
N:chorus at about 6a.m. Parrots are neither considerate nor 
N:melodious! This is on the Waulk album Um-Di-Um.
K:Em
E2E2DEFE-|E2E2FEDA,|B,E~E2DEFA|BdAG FDDF|
E2E2DEFE-|E2E2FEDA,|B,E~E2DEFA|BdAG FDDF|
Ee~e2defe-|e2e2fedA|Be~e2defa|bafe dBAd|
Be~e2defe|dBAF EDB,G,|A,2A,G, A,2B,D|EDEG A2A2:||
|:E2E2F3E|DB,A,B, DA,B,D|~A,2A,G, A,2B,D|EDEG A2A2|
|1E2E2F3E|DB,A,B, D2DA,|B,E~E2 DEFA|BAFD E2ED:|
|2e2E2F3E|DB,A,B,  Dz dA|Be~e2 defa|bafd e4||
